public/icons/vatan.svg

<?xml version="1.0" encoding="UTF-8" standalone="no"?>
<svg
   width="14"
   height="14"
   viewBox="0 0 14 14"
   version="1.2"
   id="svg328"
   sodipodi:docname="vatan.svg"
   inkscape:version="1.4.3 (0d15f75042, 2025-12-25)"
   inkscape:export-filename="vatanbio-logo.png"
   inkscape:export-xdpi="96"
   inkscape:export-ydpi="96"
   xmlns:inkscape="http://www.inkscape.org/namespaces/inkscape"
   xmlns:sodipodi="http://sodipodi.sourceforge.net/DTD/sodipodi-0.dtd"
   xmlns="http://www.w3.org/2000/svg"
   xmlns:svg="http://www.w3.org/2000/svg"
   xmlns:rdf="http://www.w3.org/1999/02/22-rdf-syntax-ns#"
   xmlns:cc="http://creativecommons.org/ns#"
   xmlns:dc="http://purl.org/dc/elements/1.1/">
  <metadata
     id="metadata332">
    <rdf:RDF>
      <cc:Work
         rdf:about="">
        <dc:format>image/svg+xml</dc:format>
        <dc:type
           rdf:resource="http://purl.org/dc/dcmitype/StillImage" />
      </cc:Work>
    </rdf:RDF>
  </metadata>
  <sodipodi:namedview
     pagecolor="#ffffff"
     bordercolor="#666666"
     borderopacity="1"
     objecttolerance="10"
     gridtolerance="10"
     guidetolerance="10"
     inkscape:pageopacity="0"
     inkscape:pageshadow="2"
     inkscape:window-width="1920"
     inkscape:window-height="1011"
     id="namedview330"
     showgrid="false"
     inkscape:zoom="11.012009"
     inkscape:cx="14.302567"
     inkscape:cy="9.8074744"
     inkscape:window-x="0"
     inkscape:window-y="0"
     inkscape:window-maximized="1"
     inkscape:current-layer="svg328"
     fit-margin-top="0"
     fit-margin-left="0"
     fit-margin-right="0"
     fit-margin-bottom="0"
     inkscape:showpageshadow="2"
     inkscape:pagecheckerboard="0"
     inkscape:deskcolor="#d1d1d1"
     inkscape:document-units="px" />
  <defs
     id="defs175" />
  <path
     inkscape:connector-curvature="0"
     id="path2997"
     d="m 7.0000001,1.7500001 c -2.8994963,0 -5.25,2.3505037 -5.25,5.25 0,2.8994961 2.3505037,5.2499999 5.25,5.2499999 C 9.8994962,12.25 12.25,9.8994962 12.25,7.0000001 c 0,-2.8994963 -2.3505038,-5.25 -5.2499999,-5.25 z m 1.907226,1.2407227 c 0.04278,-2.678e-4 0.1479817,0.092596 0.3281249,0.276855 0.3391672,0.3469043 0.4295423,0.539205 0.4511723,0.9228518 C 9.7242108,4.8589121 9.4018421,5.4420722 8.1484376,6.9589848 7.1567096,8.1592098 6.8976116,8.518753 6.6206058,9.0917973 6.4976246,9.3462153 6.3684641,9.6457862 6.3334961,9.7583006 6.2638588,9.9823901 6.2104494,10.029758 6.2104494,9.8608393 c 0,-0.191904 0.071693,-0.8001952 0.1230467,-1.0253911 C 6.389131,8.5914918 6.7940261,7.6730988 7.0717773,7.1538086 7.302541,6.7223568 7.5583212,6.285931 7.8920898,5.7695313 8.6033561,4.6690622 8.8560122,4.2424802 8.9072261,4.077637 9.0599462,3.5860856 8.9501186,3.3143786 8.8969886,3.0932621 8.8820936,3.0313121 8.8815686,2.9908833 8.9072261,2.9907228 Z M 6.1489256,4.026367 c 0.064703,0 0.4855034,0.3615083 0.717774,0.6152348 0.6324937,0.6909323 0.6906697,1.4088112 0.1845697,2.1840818 -0.1851907,0.2836837 -0.5375272,0.687012 -0.6049807,0.687012 -0.021292,0 -0.1434885,-0.10524 -0.266601,-0.2358404 C 5.8799321,6.9588693 5.7114993,6.6073818 5.6875001,6.2719721 5.6643326,5.9483688 5.7080726,5.7597828 5.9335938,5.3081058 L 6.1181636,4.9389648 6.2207028,4.6313478 C 6.3062846,4.3779236 6.1290641,4.026367 6.1489278,4.026367 Z m 4.2963864,0.7895512 c 0.17767,0.015945 0.333152,0.1084054 0.533203,0.3076171 0.540507,0.5382368 0.754232,1.4740853 0.512696,2.2250977 -0.209229,0.65055 -0.784548,1.3341 -1.7226564,2.0200192 -0.5462198,0.3993842 -1.4663085,0.8987408 -1.4663085,0.7998048 0,-0.0065 0.081357,-0.06664 0.1743165,-0.133301 C 8.6926038,9.8801898 9.4563962,9.2359188 9.6250001,9.0712893 10.029916,8.6759246 10.301757,8.3110826 10.301757,8.1484376 c 0,-0.079616 -0.04673,-0.099176 -0.36914,-0.1948244 C 9.6956913,7.8833306 9.4134708,7.6493598 9.307129,7.4409176 9.0351161,6.9077216 9.193939,5.9801282 9.6865233,5.2363278 9.8610461,4.9727942 10.010012,4.8671741 10.260742,4.8261716 c 0.06668,-0.010893 0.125347,-0.015585 0.18457,-0.01024 z M 4.7441402,7.1538086 c 0.2556788,-0.012933 0.5010736,0.02976 0.70752,0.1230467 0.3766614,0.1702049 0.5529954,0.4454399 0.594727,0.9125984 0.036968,0.4137945 -0.097112,2.2142483 -0.1845706,2.4506823 -0.030219,0.08167 -0.03588,0.08777 -0.071775,0.0205 C 5.7695366,10.622226 5.6650556,10.327765 5.5542018,10.014645 5.3294981,9.3799173 5.1502833,9.0458762 4.928713,8.8457006 4.7138996,8.6516306 4.3805508,8.5116693 4.0673853,8.4765596 3.5994326,8.4240746 3.2532708,8.505367 2.7241234,8.8046846 2.3541034,9.0139982 2.3102658,8.9101998 2.5908229,8.4970676 2.8792481,8.072329 3.4593401,7.5799518 3.9648461,7.3486301 4.2196481,7.2320373 4.4884646,7.1667273 4.7441426,7.1538056 Z m 3.7529296,0.5742187 c 0.145944,-0.015031 0.2879078,-0.00292 0.389649,0.030743 0.167829,0.055395 0.3289584,0.2432612 0.358887,0.4204097 0.079954,0.4732421 -0.495177,1.3969496 -1.2202156,1.948242 -0.2887364,0.219538 -1.3800081,0.791194 -1.6201169,0.851074 l -0.092285,0.03074 0.020505,-0.174316 c 0.079501,-0.597229 0.274286,-1.2210819 0.5332033,-1.7124001 0.2791815,-0.529758 0.7914667,-1.071978 1.220214,-1.281738 0.1140172,-0.055777 0.264213,-0.097772 0.4101562,-0.1127932 z"
     style="fill:#666666;fill-opacity:1;stroke:none;stroke-width:0.0318183" />
</svg>

<svg width="14" height="14" version="1.2" xmlns="http://www.w3.org/2000/svg"><path d="M7 1.75a5.25 5.25 0 100 10.5 5.25 5.25 0 000-10.5zm1.907 1.24c.043 0 .148.093.328.278.34.346.43.539.452.922.037.669-.285 1.252-1.539 2.769-.991 1.2-1.25 1.56-1.527 2.133a6.908 6.908 0 00-.288.666c-.07.224-.123.272-.123.103 0-.192.072-.8.123-1.026.056-.244.461-1.162.739-1.681.23-.432.486-.868.82-1.384.711-1.1.964-1.528 1.015-1.692.153-.492.043-.764-.01-.985-.015-.062-.015-.102.01-.102zM6.15 4.027c.065 0 .485.362.718.616.632.69.69 1.408.184 2.184-.185.283-.537.687-.605.687-.021 0-.143-.106-.266-.236-.3-.318-.469-.67-.492-1.005-.024-.324.02-.512.246-.964l.184-.369.103-.308c.085-.253-.092-.605-.072-.605zm4.296.79c.178.016.333.108.534.308.54.538.754 1.474.512 2.225-.209.65-.784 1.334-1.722 2.02-.547.399-1.467.898-1.467.8 0-.007.082-.067.175-.134.216-.155.98-.8 1.148-.964.405-.395.677-.76.677-.923 0-.08-.047-.099-.37-.194a1.185 1.185 0 01-.625-.513c-.272-.533-.113-1.46.38-2.205.174-.263.323-.369.574-.41a.723.723 0 01.184-.01zm-5.7 2.338c.255-.013.5.03.707.123.376.17.553.445.594.912.037.414-.097 2.215-.184 2.451-.03.082-.036.088-.072.02-.02-.038-.125-.332-.236-.645-.225-.635-.404-.97-.625-1.17a1.617 1.617 0 00-.862-.368c-.468-.053-.814.028-1.343.328-.37.209-.414.105-.133-.308.288-.425.868-.917 1.374-1.148.255-.117.523-.182.78-.195zm3.752.574a.983.983 0 01.39.03.588.588 0 01.359.421c.08.473-.496 1.397-1.22 1.948-.29.22-1.38.792-1.62.851l-.093.031.02-.174c.08-.597.275-1.221.534-1.712.279-.53.791-1.072 1.22-1.282a1.27 1.27 0 01.41-.113z" fill="#6c7174"/></svg>
